source/img/avia.svg

<svg width="18" height="20" viewBox="0 0 18 20" fill="none" xmlns="http://www.w3.org/2000/svg">
<path d="M15.7831 0.0931422C15.0546 0.266353 14.3227 0.440377 14.0504 0.917233L11.9433 5.11585L0.629163 7.8059L0.170763 9.14743L8.82861 9.96616L7.35967 13.6009L4.07624 14.3816L3.25187 15.8101L5.62062 16.0673L5.89073 17.2357C6.01174 17.6498 6.43649 17.9263 6.79903 17.8401L7.89351 17.5799L9.16224 19.7433L9.98661 18.3148L9.17628 14.8098L11.5535 11.7795L16.0895 19.741L17.0042 18.7031L14.2128 6.62921L16.7762 2.73424C17.0519 2.25657 16.8721 1.47891 16.6914 0.697594C16.6019 0.310588 16.1457 0.00694332 15.7831 0.0931422Z" fill="#101D41"/>
</svg>

<svg width="18" height="20" fill="none" xmlns="http://www.w3.org/2000/svg"><path d="M15.78.1c-.73.17-1.46.34-1.73.82l-2.1 4.2L.62 7.8.17 9.15l8.66.82-1.47 3.63-3.28.78-.83 1.43 2.37.26.27 1.17c.12.41.55.69.9.6l1.1-.26 1.27 2.16.83-1.43-.81-3.5 2.37-3.03 4.54 7.96.91-1.04-2.79-12.07 2.57-3.9c.27-.47.1-1.25-.09-2.03-.09-.39-.54-.7-.9-.6z" fill="#101D41"/></svg>
